images/header-logo.svg

<svg width="145" height="37" viewBox="0 0 145 37" fill="none" xmlns="http://www.w3.org/2000/svg">
<path d="M27.2188 0.388916V35.6889H19.6135V33.2889C17.9124 35.1889 15.5107 36.3889 12.1084 36.3889C5.5038 36.3889 0 30.5889 0 23.0889C0 15.5889 5.5038 9.78892 12.1084 9.78892C15.5107 9.78892 18.0124 10.9889 19.6135 12.8889V0.388916H27.2188ZM19.6135 23.0889C19.6135 19.2889 17.1118 16.8889 13.6094 16.8889C10.107 16.8889 7.60524 19.2889 7.60524 23.0889C7.60524 26.8889 10.107 29.2889 13.6094 29.2889C17.1118 29.1889 19.6135 26.8889 19.6135 23.0889Z" fill="black"/>
<path d="M43.7298 29.5888C45.8313 29.5888 47.5325 28.7888 48.5332 27.6888L54.6374 31.1888C52.1356 34.5888 48.4331 36.3888 43.6298 36.3888C35.0238 36.3888 29.6201 30.5888 29.6201 23.0888C29.6201 15.5888 35.0238 9.78882 43.0294 9.78882C50.4345 9.78882 55.8382 15.4888 55.8382 23.0888C55.8382 24.1888 55.7381 25.1888 55.538 26.0888H37.6256C38.6263 28.6888 40.9279 29.5888 43.7298 29.5888ZM48.333 20.4888C47.5325 17.5888 45.2309 16.4888 42.9293 16.4888C40.0273 16.4888 38.126 17.8888 37.4255 20.4888H48.333Z" fill="black"/>
<path d="M82.1563 10.489L72.8499 35.689H64.2439L54.9375 10.489H63.3433L68.647 26.489L73.9506 10.489C73.9506 10.489 82.1563 10.489 82.1563 10.489Z" fill="black"/>
<path d="M83.458 10.489H91.0633V35.689H83.458V10.489Z" fill="black"/>
<path d="M93.665 23.0888C93.665 15.5888 99.369 9.78882 107.074 9.78882C111.978 9.78882 116.281 12.3888 118.482 16.2888L111.878 20.0888C110.977 18.2888 109.176 17.2888 106.974 17.2888C103.672 17.2888 101.27 19.6888 101.27 23.0888C101.27 26.5888 103.672 28.8888 106.974 28.8888C109.176 28.8888 111.077 27.7888 111.878 26.0888L118.482 29.8888C116.381 33.7888 112.078 36.3888 107.074 36.3888C99.369 36.3888 93.665 30.5888 93.665 23.0888Z" fill="black"/>
<path d="M132.892 29.5888C134.993 29.5888 136.695 28.7888 137.695 27.6888L143.799 31.1888C141.298 34.5888 137.595 36.3888 132.792 36.3888C124.186 36.3888 118.782 30.5888 118.782 23.0888C118.782 15.5888 124.286 9.78882 132.191 9.78882C139.597 9.78882 145 15.4888 145 23.0888C145 24.1888 144.9 25.1888 144.7 26.0888H126.788C127.788 28.6888 130.09 29.5888 132.892 29.5888ZM137.595 20.4888C136.795 17.5888 134.493 16.4888 132.191 16.4888C129.289 16.4888 127.388 17.8888 126.688 20.4888H137.595Z" fill="black"/>
</svg>

<svg width="145" height="37" fill="none" xmlns="http://www.w3.org/2000/svg"><path d="M27.219.389v35.3h-7.606v-2.4c-1.7 1.9-4.102 3.1-7.505 3.1-6.604 0-12.108-5.8-12.108-13.3 0-7.5 5.504-13.3 12.108-13.3 3.403 0 5.904 1.2 7.505 3.1V.389h7.606Zm-7.606 22.7c0-3.8-2.501-6.2-6.004-6.2-3.502 0-6.004 2.4-6.004 6.2 0 3.8 2.502 6.2 6.004 6.2 3.503-.1 6.004-2.4 6.004-6.2ZM43.73 29.589c2.101 0 3.803-.8 4.803-1.9l6.104 3.5c-2.501 3.4-6.204 5.2-11.007 5.2-8.606 0-14.01-5.8-14.01-13.3 0-7.5 5.404-13.3 13.41-13.3 7.404 0 12.808 5.7 12.808 13.3 0 1.1-.1 2.1-.3 3H37.626c1 2.6 3.302 3.5 6.104 3.5Zm4.603-9.1c-.8-2.9-3.102-4-5.404-4-2.902 0-4.803 1.4-5.504 4h10.908ZM82.156 10.489l-9.306 25.2h-8.606l-9.306-25.2h8.405l5.304 16 5.304-16h8.205ZM83.458 10.489h7.605v25.2h-7.605v-25.2ZM93.665 23.089c0-7.5 5.704-13.3 13.409-13.3 4.904 0 9.207 2.6 11.408 6.5l-6.604 3.8c-.901-1.8-2.702-2.8-4.904-2.8-3.302 0-5.704 2.4-5.704 5.8 0 3.5 2.402 5.8 5.704 5.8 2.202 0 4.103-1.1 4.904-2.8l6.604 3.8c-2.101 3.9-6.404 6.5-11.408 6.5-7.705 0-13.409-5.8-13.409-13.3ZM132.892 29.589c2.101 0 3.803-.8 4.803-1.9l6.104 3.5c-2.501 3.4-6.204 5.2-11.007 5.2-8.606 0-14.01-5.8-14.01-13.3 0-7.5 5.504-13.3 13.409-13.3 7.406 0 12.809 5.7 12.809 13.3 0 1.1-.1 2.1-.3 3h-17.912c1 2.6 3.302 3.5 6.104 3.5Zm4.703-9.1c-.8-2.9-3.102-4-5.404-4-2.902 0-4.803 1.4-5.503 4h10.907Z" fill="#000"/></svg>
